X: 8227
T: Copper Hills Of Beara, The
R: reel
M: 4/4
K: Amajor
ceBe ceBe|cAAG ABAG|FGAF EFAB|cAec B2AB|
ceBe ceBe|cAAG ABAG|FGAF EFAB|cABd cAAB:|
|:ce(3eee efec|e2(3efg agfe|ce (3efg agfe|faef cdcB|
c2cB ABAG|FGAF EFED|CEAB ceed|1 ceBe cAAB:|2 ceBe cAAB||

